X:1
T:Are You Living for the Lord?
T:Are You Living for the Lord?
T:Edmund S. Lorenz, c.1901
T:Carrie E. Breck
T:PUBLIC DOMAIN
C:Edmund S. Lorenz, c.1901
Z:Carrie E. Breck
Z:PUBLIC DOMAIN
%%score ( 1 2 ) ( 3 4 )
L:1/8
Q:1/4=90
M:4/4
K:D
V:1 treble nm="Treble"
V:2 treble 
V:3 bass nm="Bass"
V:4 bass 
V:1
!8vb(! [FA] [FA] | [FA]2 [FA]2 [FA]2 [FA]2 | [GB]2 [Bd]2 d2 [de]2 | [df]3 [df] [Ae]2 [Bd]2 | %4
w: 1.~Live for|Him who died to|save you From sin’s|bale- ful curse and|
w: 2.~Sit- ting|at the feet of|Je- sus, Learn from|Him the word of|
w: 3.~Bring- ing|suc- cor to the|need- y, Com- fort-|ing the sad, the|
w: 4.~Do- ing|hum- ble, dai- ly|du- ties, Faith- ful-|ly as un- to|
 [ce]6 | [Ac] [Bd] | [ce]2 [ce]2 [ce]2 [cf]2 | [ce]2 [Bd]2 [Bd]2 [Bd]2 | [Ac]3 [ce] [ce]2 [Bd]2 | %9
w: pow’r;|Live for|Him who all things|gave you And who|keeps you eve- ry|
w: truth;|Find the|chart to guide your|go- ings, Bless- ed|guide for age and|
w: lone,|Giv- ing|man- y~a cup of|wa- ter To some|loved one of His|
w: Him,|Serv- ing|with your true heart-|ser- vice Till the|day of life is|
 [Ac]6 |"^Refrain" [GA] [GA] | [FA] [Ad]3 d3 [ce] | [df]6 [Ae][Ad] | [GB] [Bd]3 [Bd]3 [GB] | %14
w: hour.|Are you|liv- ing for the|Lord? Are you|liv- ing for the|
w: youth.|||||
w: own.|||||
w: dim.|||||
 [FA]6 | [FA] [FA] | [FA]2 [Ad]2 d2 [ce]2 | [df]2 [df]4 [Ad][Ad] | [Be] [Be]3 [Ac]3 [Ac] | %19
w: Lord?|On- ly|life for Him is|wor- thy— Are you|liv- ing for the|
w: |||||
w: |||||
w: |||||
 [Ad]6!8vb)! |] %20
w: Lord?|
w: |
w: |
w: |
V:2
!8vb(! x2 | x8 | z4 d2 z2 | x8 | x6 | x2 | x8 | x8 | x8 | x6 | x2 | z4 d3 z | x8 | x8 | x6 | x2 | %16
 z4 d2 z2 | x8 | x8 | x6!8vb)! |] %20
V:3
 D, D, | D,2 D,2 D,2 D,2 | [G,,D,]2 [G,,G,]2 [G,B,]2 [G,B,]2 | [D,A,]3 [D,A,] [C,A,]2 [B,,^G,]2 | %4
 [A,,A,]6 | [A,,E,] [A,,F,] | [A,,G,]2 [A,,G,]2 [A,,G,]2 [A,,A,]2 | %7
 [B,,F,]2 [B,,F,]2 [D,F,]2 [D,F,]2 | E,3 [E,A,] [E,^G,]2 E,2 | [A,,E,]6 | [A,,C,] [A,,C,] | %11
 D, [D,F,]3 [F,A,]3 A, | [D,A,]6 [D,G,][D,F,] | [G,,D,] [G,,G,]3 [G,,G,]3 [G,,D,] | D,6 | D, D, | %16
 D,2 [D,F,]2 [F,A,]2 A,2 | [D,A,]2 [D,A,]4 [D,F,][D,F,] | [G,,G,] [G,,G,]3 [A,,E,]3 [A,,G,] | %19
 [D,F,]6 |] %20
V:4
 D, D, | D,2 D,2 D,2 D,2 | x8 | x8 | x6 | x2 | x8 | x8 | E,3 z z2 E,2 | x6 | x2 | D, z3 z3 A, | %12
 x8 | x8 | D,6 | D, D, | D,2 z2 z2 A,2 | x8 | x8 | x6 |] %20

